X:1
T:Title
%%score { ( 1 3 ) | ( 2 4 ) }
L:1/8
M:4/4
K:Bb
V:1 treble nm="Grand Piano"
V:3 treble 
V:2 bass 
V:4 bass 
V:1
 z4 z2[Q:1/4=100] [B,D][CE] | [DF][Fd] [Fd]>[Ec] [Ec][DB][DB][FB] | %2
 [GB][GB] [FA]>[EG] [EG][DF] [DF]2 | [DF][DB][DB][DB] (3[FB][FB][FB] [EA][DB] | c6 z E | %5
 [DF][Fd] [Fd]>[Ec] [Ec][DB][DB][FB] | [GB][GB] [FA]>[EG] [EG][DF] [DF]2 | FBBB (3BBB Ac | %8
[M:3/4] [B,DFB]6 |[M:1/4] DE |[M:4/4] [DF][DFd] [DFd]>[DFc] .[DFB]2 GF | G[Ge] [Ge]>[Gd] cBAG | %12
 Ff f>f f3 e |[M:3/4] (3ddd cB D2 |[M:1/4] DE |[M:4/4] [DF][DFd] [DFd]>[DFc] .[DFB]2 GF | %16
 G[Ge] [Ge]>[Gd] cBAG | Ff f>f f3 e |[M:3/4] (3ddd cc [DFB]2 |] %19
V:2
 z4 z2 [B,,F,]2 | [B,,B,][B,,B,] [B,,B,]>[B,,B,] [B,,B,][B,,B,][B,,B,][D,B,] | %2
 [E,B,][E,B,] [E,B,]>[E,B,] [B,,B,][B,,B,] [B,,B,]2 | %3
 [B,,B,][B,,F,][B,,F,][B,,F,] (3[D,B,][D,B,][D,B,] [C,F,][B,,F,] | [F,A,F]6 [D,B,][C,A,] | %5
 [B,,B,][B,,B,] [B,,B,]>[B,,B,] [B,,B,][B,,B,][B,,B,][D,B,] | %6
 [E,B,][E,B,] [E,B,]>[E,B,] [B,,B,][B,,B,] [B,,B,]2 | %7
 [F,B,D][F,DF][F,DF][F,DF] (3[F,DF][F,DF][F,DF] [F,CF][F,EF] |[M:3/4] B,,6 |[M:1/4] B,C | %10
[M:4/4] B,,B,, B,,>B,, z[K:treble] A .F2 | [E,E][E,E] [E,E]>[E,E] [E,E]2[K:treble] FE | %12
 [F,D][F,DF] [F,DF]>[F,DF] [F,DF]3 [F,CF] |[M:3/4] (3[F,B,F][F,B,F][F,B,F] [F,EF][F,DF] [B,,B,]2 | %14
[M:1/4] B,C |[M:4/4] B,,B,, B,,>B,, z[K:treble] A .F2 | %16
 [E,E][E,E] [E,E]>[E,E] [E,E]2[K:treble] FE | [F,D][F,DF] [F,DF]>[F,DF] [F,DF]3 [F,CF] | %18
[M:3/4] (3[F,B,F][F,B,F][F,B,F] [F,EF][F,EF] [B,,B,]2 |] %19
V:3
 x8 | x8 | x8 | x8 | z4 z2 F2 | x8 | x8 | x8 |[M:3/4] x6 |[M:1/4] x2 |[M:4/4] x8 | z4 G2 z2 | x8 | %13
[M:3/4] x6 |[M:1/4] x2 |[M:4/4] x8 | z4 G2 z2 | x8 |[M:3/4] x6 |] %19
V:4
 x8 | x8 | x8 | x8 | x8 | x8 | x8 | x8 |[M:3/4] x6 |[M:1/4] x2 |[M:4/4] z4 B,,2[K:treble] z2 | %11
 x6[K:treble] x2 | x8 |[M:3/4] x6 |[M:1/4] x2 |[M:4/4] z4 B,,2[K:treble] z2 | x6[K:treble] x2 | %17
 x8 |[M:3/4] x6 |] %19

